svg/emoji_u1f9df.svg

<?xml version="1.0" encoding="UTF-8" standalone="no"?>
<svg
   xmlns:dc="http://purl.org/dc/elements/1.1/"
   xmlns:cc="http://creativecommons.org/ns#"
   xmlns:rdf="http://www.w3.org/1999/02/22-rdf-syntax-ns#"
   xmlns:svg="http://www.w3.org/2000/svg"
   xmlns="http://www.w3.org/2000/svg"
   xmlns:sodipodi="http://sodipodi.sourceforge.net/DTD/sodipodi-0.dtd"
   xmlns:inkscape="http://www.inkscape.org/namespaces/inkscape"
   width="128"
   height="128"
   style="enable-background:new 0 0 128 128;"
   version="1.1"
   id="svg20"
   sodipodi:docname="emoji_u1f9df.svg"
   inkscape:version="0.92+devel unknown">
  <metadata
     id="metadata26">
    <rdf:RDF>
      <cc:Work
         rdf:about="">
        <dc:format>image/svg+xml</dc:format>
        <dc:type
           rdf:resource="http://purl.org/dc/dcmitype/StillImage" />
      </cc:Work>
    </rdf:RDF>
  </metadata>
  <defs
     id="defs24" />
  <sodipodi:namedview
     pagecolor="#ffffff"
     bordercolor="#666666"
     inkscape:document-rotation="0"
     borderopacity="1"
     objecttolerance="10"
     gridtolerance="10"
     guidetolerance="10"
     inkscape:pageopacity="0"
     inkscape:pageshadow="2"
     inkscape:window-width="1680"
     inkscape:window-height="986"
     id="namedview22"
     showgrid="false"
     inkscape:zoom="5.4453125"
     inkscape:cx="29.630753"
     inkscape:cy="59.251008"
     inkscape:window-x="0"
     inkscape:window-y="27"
     inkscape:window-maximized="1"
     inkscape:current-layer="svg20" />
  <style
     type="text/css"
     id="style2">
.st0{fill:#FCC21B;}
.st1{fill:#2F2F2F;}
.st2{fill:#ED6C30;}
.st3{fill:#FFFFFF;}
  </style>
  <path
     style="fill:#76bf6a;fill-opacity:1"
     d="M 64 9.5996094 C 52.925135 9.5996094 43.780151 11.817343 36.214844 15.527344 A 10.023575 5.7918682 67.935062 0 1 35.949219 19.394531 A 10.023575 5.7918682 67.935062 0 1 31.296875 22.679688 A 7.9959433 4.6145716 67.851655 0 1 30.554688 25.492188 A 7.9959433 4.6145716 67.851655 0 1 26.279297 26.560547 A 9.0002182 4.8306044 68.147469 0 1 25.835938 29.396484 A 9.0002182 4.8306044 68.147469 0 1 20.230469 30.509766 A 10.023575 5.7918682 67.935062 0 1 15.660156 33.554688 C 0.77135261 55.164912 0.19921875 84.821477 0.19921875 93.300781 C 0.19921875 107.10078 28.8 118.30078 64 118.30078 C 99.2 118.30078 127.80078 107.10078 127.80078 93.300781 C 127.80078 79.500781 126.3 9.5996094 64 9.5996094 z "
     id="path4" />
  <path
     class="st1"
     d="m 39.142561,67.629116 c -4.314906,-1.277335 -6.642153,-6.450721 -5.137735,-11.532722 1.532802,-5.177887 6.205292,-8.279151 10.452696,-7.126088 4.314906,1.277336 6.642153,6.450722 5.137736,11.532722 -1.436916,5.206273 -6.137791,8.403424 -10.452697,7.126088 z"
     id="path6"
     inkscape:connector-curvature="0"
     style="fill:#ffffff;fill-opacity:1" />
  <path
     class="st1"
     d="m 92.089482,67.729614 c 4.374564,-2.825018 5.111976,-9.362383 1.784732,-14.514647 -3.390021,-5.249477 -9.686347,-7.106823 -13.963698,-4.344584 -4.374564,2.825018 -5.111975,9.362384 -1.784732,14.514648 3.390022,5.249477 9.589134,7.169601 13.963698,4.344583 z"
     id="path8"
     inkscape:connector-curvature="0"
     style="stroke-width:0.99999994;fill:#ffffff;fill-opacity:1" />
  <path
     inkscape:connector-curvature="0"
     id="path12"
     d="M 85.3,88.3 C 83.7,84.3 75.6,78 64.7,77.8 v 0 c -0.1,0 -0.1,0 -0.2,0 -0.1,0 -0.1,0 -0.2,0 v 0 C 53.5,78 45.5,84.4 43.8,88.3 c -1.7,4 -0.2,6.7 4.3,6.7 4.2,0 14.9,0 16.4,0 v 0 c 0,0 0,0 0.1,0 0.1,0 0.1,0 0.1,0 v 0 c 1.4,0 12.1,0 16.4,0 4.4,0 5.9,-2.7 4.2,-6.7 z"
     class="st2"
     style="fill:#47423c;fill-opacity:1" />
  <path
     inkscape:connector-curvature="0"
     id="path14"
     d="m 84.8,93.9 c 0,0 0,-0.7 -1.1,-1 C 82.2,92.5 80,94.1 76.7,94 73.4,93.9 68.9,93.1 66,93.1 62.7,93 62.6,95 62.6,95 c 0,0 15.8,0 18.1,0 2.3,0 3.3,-0.4 4.1,-1.1 z"
     class="st3"
     style="fill:#c08198;fill-opacity:1" />
  <path
     inkscape:connector-curvature="0"
     id="path16"
     d="m 69.1,95 c 4.2,0.8 6,2 6,7.1 0,2.2 -0.3,4.9 0,7.1 0.4,2.4 2.1,2.9 3.3,2.7 2.9,-0.5 1.9,-5.4 2.3,-10.8 C 81,97 84.2,96.8 84.8,94 Z"
     class="st3"
     style="fill:#c08198;fill-opacity:1" />
  <path
     style="vector-effect:none;fill:#6aac5f;fill-opacity:1;opacity:1;stroke-width:1;stroke-linecap:butt;stroke-linejoin:miter;stroke-miterlimit:4;stroke-dasharray:none;stroke-dashoffset:0;stroke-opacity:1"
     d="m 23.922649,86.857481 c -2.088583,4.245087 -1.877874,6.373666 -5.973402,6.373666 -4.095528,0 -8.9728407,-3.592333 -8.9728409,-8.323394 -3e-7,-4.731062 9.4864069,-9.258043 13.5354869,-8.64298 5.576697,0.847113 3.329314,6.693201 1.410756,10.592708 z"
     id="path4294"
     inkscape:connector-curvature="0"
     sodipodi:nodetypes="sssss" />
  <path
     style="opacity:1;vector-effect:none;fill:#6aac5f;fill-opacity:1;stroke-width:1;stroke-linecap:butt;stroke-linejoin:miter;stroke-miterlimit:4;stroke-dasharray:none;stroke-dashoffset:0;stroke-opacity:1"
     d="m 29.901363,95.168625 c 0,2.212772 -0.562951,4.826645 -2.489732,4.826645 -1.926782,0 -4.487761,-2.613872 -4.487761,-4.826645 0,-2.212773 2.580504,-3.850599 4.507286,-3.850599 1.926782,0 2.470207,1.637826 2.470207,3.850599 z"
     id="path4313"
     inkscape:connector-curvature="0"
     sodipodi:nodetypes="sssss" />
</svg>

<svg xmlns="http://www.w3.org/2000/svg" width="128" height="128" id="svg20"><style id="style2">.st1{fill:#2f2f2f}.st3{fill:#fff}</style><path d="M64 9.6c-11.075 0-20.22 2.217-27.785 5.927a10.024 5.792 67.935 0 1-.266 3.868 10.024 5.792 67.935 0 1-4.652 3.285 7.996 4.615 67.852 0 1-.742 2.812 7.996 4.615 67.852 0 1-4.276 1.069 9 4.83 68.147 0 1-.443 2.835 9 4.83 68.147 0 1-5.606 1.114 10.024 5.792 67.935 0 1-4.57 3.045C.771 55.165.2 84.82.2 93.3c0 13.8 28.6 25 63.8 25 35.2 0 63.8-11.2 63.8-25S126.3 9.6 64 9.6z" id="path4" fill="#76bf6a"/><path class="st1" d="M39.143 67.63c-4.315-1.278-6.643-6.452-5.138-11.534 1.533-5.177 6.205-8.279 10.453-7.126 4.314 1.278 6.642 6.451 5.137 11.533-1.437 5.206-6.138 8.403-10.452 7.126z" id="path6" fill="#fff"/><path class="st1" d="M92.09 67.73c4.374-2.825 5.111-9.363 1.784-14.515-3.39-5.25-9.686-7.107-13.963-4.345-4.375 2.825-5.112 9.363-1.785 14.515 3.39 5.25 9.589 7.17 13.963 4.345z" id="path8" fill="#fff"/><path id="path12" d="M85.3 88.3c-1.6-4-9.7-10.3-20.6-10.5h-.4c-10.8.2-18.8 6.6-20.5 10.5-1.7 4-.2 6.7 4.3 6.7h33c4.4 0 5.9-2.7 4.2-6.7z" fill="#47423c"/><path id="path14" d="M84.8 93.9s0-.7-1.1-1c-1.5-.4-3.7 1.2-7 1.1-3.3-.1-7.8-.9-10.7-.9-3.3-.1-3.4 1.9-3.4 1.9h18.1c2.3 0 3.3-.4 4.1-1.1z" class="st3" fill="#c08198"/><path id="path16" d="M69.1 95c4.2.8 6 2 6 7.1 0 2.2-.3 4.9 0 7.1.4 2.4 2.1 2.9 3.3 2.7 2.9-.5 1.9-5.4 2.3-10.8.3-4.1 3.5-4.3 4.1-7.1z" class="st3" fill="#c08198"/><path d="M23.923 86.857c-2.089 4.246-1.878 6.374-5.974 6.374-4.095 0-8.973-3.592-8.973-8.323s9.487-9.258 13.536-8.643c5.577.847 3.33 6.693 1.41 10.592z" id="path4294" fill="#6aac5f"/><path d="M29.901 95.169c0 2.212-.563 4.826-2.49 4.826-1.926 0-4.487-2.614-4.487-4.826 0-2.213 2.58-3.851 4.507-3.851 1.927 0 2.47 1.638 2.47 3.85z" id="path4313" fill="#6aac5f"/></svg>
